X:9
T:Saddle the Pony
R:jig
O:Ireland
M:6/8
L:1/8
K:G
D |: GBA G2B | def gdB | GBA G2B |  AFD AFD | 
     GBA G2B | def gfg | ege dBA |1 BGG G2D :|2 BGG GBd||
     efe edB | def gfg | efe edB | dBA  ABd | 
     efe edB | def gfg | ege dBA |1 BGG GBd :|2 BGG G3|]
